X: 12057
T: Esau Payne's
R: jig
M: 6/8
K: Dmixolydian
A2 d|:f2a f2d|e3 d2e|f2a gfe|f2d d2e|
fgf e2d|efg a2f|g2e f2d|1 [M:9/8] e3 A3A2 d:|2 [M:6/8] e3 A2B|
|:c3 cdc|B3 BAB|A2G ABc|d2d A2B
c3 cdc|B3 BAB|A2G ABc|1 d3 A2B:|2 d3||

